X: 9
T: Sally Gardens, The
Z: jasonthe28
S: https://thesession.org/tunes/98#setting54169
R: reel
M: 4/4
L: 1/8
K: Gmaj
|:"G" G2DG BAGB|dBeB dBAB|"G/C" d2Bd efge|"D" dBAB GEDE|
"G" G2DG BAGB|dBeB dBAB|"G/C" d2Bd efge|1 "D" dBAB "G" GEDE:|2 "D" dBAB "G" GABc||
|:"G" dggf g2de|g2bg ageg|"Am" eaag a2eg|a2bg ageg|
"G/B" dggf g2de|g2bg ageg|"G/C" d2Bd efge|1 "D" dBAB "G" GABc:|2 "D" dBAB "G" GEDE||

%-------------------- TUNE SEPARATOR --------------------%

